packages/astro-components-stencil/src/icons/invert-colors-off.svg

<svg width="24" height="24" viewBox="0 0 24 24" fill="none" xmlns="http://www.w3.org/2000/svg">
<path fill-rule="evenodd" clip-rule="evenodd" d="M12 5.10001V9.15001L19.4 16.55C20.55 13.67 19.99 10.27 17.65 7.94001L12.71 2.99001C12.32 2.60001 11.69 2.60001 11.3 2.99001L8.55996 5.71001L9.96996 7.12001L12 5.10001ZM3.68996 5.08001C3.29996 5.47001 3.29996 6.10001 3.68996 6.49001L5.76996 8.57001C3.22996 11.71 3.41996 16.32 6.33996 19.25C7.89996 20.8 9.94996 21.58 12 21.58C13.78 21.58 15.56 20.99 17.02 19.81L19.02 21.81C19.41 22.2 20.04 22.2 20.43 21.81C20.82 21.42 20.82 20.79 20.43 20.4L5.10996 5.08001C4.71996 4.69001 4.07996 4.69001 3.68996 5.08001ZM7.75996 17.83C8.88996 18.97 10.4 19.59 12 19.59V14.79L7.20996 10C6.42996 11.03 5.99996 12.27 5.99996 13.59C5.99996 15.19 6.61996 16.69 7.75996 17.83Z" fill="black"/>
</svg>

<svg xmlns="http://www.w3.org/2000/svg" viewBox="0 0 24 24"><g xmlns="http://www.w3.org/2000/svg" id="invert-colors-off" fill-rule="nonzero">
            <path d="M12 5.1v4.05l7.4 7.4c1.15-2.88.59-6.28-1.75-8.61l-4.94-4.95a.996.996 0 00-1.41 0L8.56 5.71l1.41 1.41L12 5.1zm-8.31-.02a.996.996 0 000 1.41l2.08 2.08a8.003 8.003 0 00.57 10.68A8.011 8.011 0 0012 21.58c1.78 0 3.56-.59 5.02-1.77l2 2a.996.996 0 101.41-1.41L5.11 5.08c-.39-.39-1.03-.39-1.42 0zM12 19.59c-1.6 0-3.11-.62-4.24-1.76A5.945 5.945 0 016 13.59c0-1.32.43-2.56 1.21-3.59L12 14.79v4.8z"/>
        </g></svg>
